!!!OTL: Fuhrmannslied (3-51), S. 149
!!!id: P1023
**kern
*clefG2
*k[f#c#]
*G:
{4d
4g
=1yy
4b
=2
4a
4g
=3
*M4/4
4f#
4e
2d}
=4
*M2/4
{4a
4g
=5
*M4/4
2a
2dd
=6
*M2/4
4cc#
4dd
=7
*M4/4
2a}
2r
=8
*M2/4
{4b
4g
=9
*M4/4
2a
2dd
=10
*M2/4
4ee
4cc
=11
*M4/4
4dd
4ee
2dd}
=12
*M2/4
{4dd
4a
=13
*M4/4
4b
4a
4g
4b
=14
*M2/4
4a
4g
=15
*M4/4
4f#
4e
2d}
=16
*M2/4
{4a
4g
=17
*M4/4
2a
2dd
=18
*M2/4
4cc#
4dd
=19
4a}
==
*-
!!!minrhy: 4
!!!meters: 2/4 4/4 ]  ZZ[5
!!!cut: Fuhrmannslied (3-51), S. 149
!!!reg: Lothringen
!!!trd: PINCK, Louis: Verklingende Weisen, Bd3, Metz 1933
!!!rhy1: XXX  XX  XXX_
!!!rhy2: XX  X_X_  XX  X_0_
!!!key: P1023  04  G 2/4 4/4 ]  ZZ[5
!!!mod: ACHTTONSKALA DUR ?]  AMBITUS[9
!!!kad: -525-52
!!!akz: 2-7-5_2254#2_325655_5312-7-5_2254#2_
!!!fot: 'a__b__c__d__b__
!!!for: 'a__b__bw_aw_bv_
!!!fok: '^__^__Va_\__^__
!! PHRAS[VORWIEGEND VOLLTAKTIG]
!!!fkt: Berufslied, Brautwerbung?
!! LOTH VKL
!! PR[12] 2K[6] 2G[15] 3K[9] 3G[0] 4A[0] 4Ü[0] 5A[0] 6K[0] 6G[3]
!! 7K[3] 7G[0] 8A[0] MEHR[0] SI[35] ABS[34] SR[21] SP[15]
!! ST[15] 2k[9] 2g[26] 3k[12] 3g[3] 4d[0] 4ü[0] 5d[3] 6k[0] 6g[0]
!! 7k[0] 7g[0] 8d[0] mehr[0] si[53] dm[-18] sr[35] sp[18]
!! 1F[8] 2F[68] 3F[19] 4F[0] LF[0] 2P[3] 3P[3] 4P[0] TRI[0] DF[5] AB[37]
!! TF[0] U3K[0] U3[0] U4[0] U4Ü[0] U5[6] U6K[0] U6[3] U7K[0] U7[6]
!! N1[23] N2K[0] N2[20] N3K[0] N3[26] N4[9] N4Ü[0] N5[9] N6K[0] N6[0]
!!!n7k: 0] N7[0] O1[0] O2K[0] O2[0] O3K[0] O3[0] HÖ[0
